!!!COM: Robert Schumann
!!!CNT: Deutsch
!!!TXO: Deutsch
!!!OTL: Lieb der Braut No. 1
!!!LYR: Ru2ckert
!!!OPR: Myrten
!!!OPS: Op. 25
!!!ONM: No. 11
!!!ENC: Ben Fuhrman
!!!YOR: Schumann Lieder - Max Friedlaender, ed.,
!!!YOR: New York: C. F. Peters, Vol. 1
!!!ODT: 1840/
!!NB: Vocal melody and text only encoded.
!!NB: First instance of melodic material only encoded.
**kern	**silbe
*clefG2	*
*k[b-]	*
*M2/4	*
!!created:5/12/06 15:08
!!proofed and posted: 5/12/06 15:09
!!edit time: 25 minutes
=3	=3
{4a	{Mut-
(8.e	-ter,
16f)	|
=4	=4
4g	Mut-
4c	-ter!
=5	=5
(4a	glau-
8.e)	|
16f	-be
=6	=6
2g}	nicht,}
=7	=7
{4a.	{weil
8a	ich
=8	=8
4b-	ihn
4f#	lieb'
=9	=9
(4g	all-
qa	|
qg	|
qf#	|
qg	|
8dd)	|
8a	-so-
=10	=10
4b-}	-sehr,}
{8b-	{dass
8b-	nun
=11	=11
8b-	Lie-
8b-	-be
8.dd	mir
16cc#	ge-
=12	=12
8cc#}	-richt,}
{4a	{dich
8e	zu
=13	=13
(8f	lie-
qg	|
qf	|
16e)	|
16f	ben,
8.a	wie
16g	cor-
=14	=14
4.g}	-her.}
8r	.
=15	=15
{8.a	{Mut-
16a	-ter,
(12a	Mut-
12b-)	|
12cc	-ter!
=16	=16
8cc	seit
8b-	ich
4a	ihn
=17	=17
8g	lie-
8d}	-be,}
{8.e	{lieb'
16c	ich
=18	=18
8f	erst
(16a	dich
16g)	|
4g}	sehr.}
=19	=19
{8a	{Lass
8a	mich
(8a	an
16b-)	|
16cc	mein
=20	=20
8cc	Herz
8b-	dich
4a	zieh'n
=21	=21
8g	und
8d	dich
8e	ku2s-
8c}	-sen,}
=22	=22
{[4f	{wie
(8f]	|
qg	|
qf)	|
(16e	mich
16f)	|
=23	=23
4b-	er,
8b-	wie
8b-	mich
=24	=24
4.b-	er,
8b-	wie
=25	=25
[2ee	er!
=26	=26
(2ee]	|
qb-)}	|}
=27	=27
{4a	{Mut-
(8.e	-ter,
16f)	|
=28	=28
4g	Mut-
4c	-ter!
=29	=29
(4a	seit
8.e)	|
16f	ich
=30	=30
2g	ihn
=31	=31
4.a	lie-
8a}	-be,}
=32	=32
{4b-	{lieb'
4f#	ich
=33	=33
(8g	erst
qa	|
qg	|
16f#	|
16g	|
8dd)	|
8a	dich
=34	=34
4b-}	ganz,}
{8b-	{dass
8b-	du
=35	=35
8b-	mir
8b-	das
8.ff	Sein
16ee	ver-
=36	=36
4ee}	lieh'n,}
{8e	{das
8e	mir
=37	=37
8f	ward
8f	zu
8.b-	sol-
16a	chem
=38	=38
8a}	Glanz,}
{(8a	{das
8b-)	|
8cc	mir
=39	=39
8dd	ward
8ee	zu
8gg	sol-
8ff	-chem,
=40	=40
4.cc	sol-
8e	-chem
=41	=41
2f}	Glanz.}
==	==
*-	*-
